X: 220
T: Over The Waterfall
B: canberra pickers and fiddlers
B: songs
B: traditional songs
B: tunes
M:4/4
L:1/4
R: reel
Q: 1/4=100
K:D
V:1 
  d/2e/2|\
 "D" fa "A7" g/2f/2e | "D" dB Ad/2e/2 | "D" fa "A7" g/2f/2e | "D" d3 d/2e/2 | 
 "D" fa "A7" g/2f/2e | "D" dB A>B     | "C" =cc     BA      | "G" G3       :|
|:F/2G/2|\
 "D" A2 "G"  B2 | "D" A/2B/2A/2G/2 FF/2G/2 | "D" Ad "A7" c/2d/2e | "D" d4  |
 "D" A2 "G"  B2 | "D" A/2B/2A/2G/2 FF/2G/2 | "D" AD "A7" G/2F/2E | "D" D3 :|
W: I thought I knew what I was doing
W: I was wrong
W: Mistakes I've made and lived to tell
W: I tell them in a song
W: 
W: I knew a river wide and deep
W: Her banks were very tall
W: At one end was a mountain stream
W: The other was a waterfall, boys
W: The other was a waterfall
W: 
W: I asked the old man by the river
W: He did not recall
W: The last attempt to ride a barrel
W: Over the waterfall
W: 
W: The ferry boatman, he did tell me
W: That the chance was very small
W: None survived who went alive
W: Over the waterfall, boys
W: Over the waterfall
W: 
W: So I built myself an oaken barrel
W: And inside I did crawl
W: I broke the record but I broke my back
W: Going over the waterfall
W: 
W: And it's been my luck to live to tell
W: The only tale I can
W: It don't hurt you when you fall
W: Only when you land, boys
W: Only when you land
% abcbook-tune_id 63da593445a97366b79cf7ac
% abcbook-tune_composer_id 
% abcbook-link-0 https://www.youtube.com/watch?v=W1PXDwVDkZc
% abcbook-boost 0
% abcbook-difficulty 1
% abcbook-tags canberra pickers and fiddlers,max campbell,old time tunes,steve ryan,steve set,test,© free
% abcbook-tablature 
% abcbook-transpose 
% abcbook-tuning ADAE
% abcbook-lastupdated 1739278809235
% abcbook-src-url https://tunebook.net/scrape/traditional%20songs.abc
% abcbook-soundfonts 
% abcbook-repeats 1
%%gchordfont "itim-music,Itim" 20

